X:471
T:St. Catherine. (p).1701.PLFD.471
M:4/4
L:1/4
Q:1/2=100
S:Playford, Dancing Master,11th Ed.,1701.
O:England
Z:Chris Partington.
K:G
d/e/|dGGA|B3A/B/|c/d/c/B/ A/B/A/G/|F/G/AAd/e/|
dGGA|B3A/B/|c/B/A/G/ F/G/A/F/|G3:|
|:A/B/|ADDE|F3A/B/ADGA|B3B/c/|BBeB|
c3c/B/|A/B/A/G/ F/G/A/F/|GE2B/c/|BBeB|
c3c/B/|AAdA|B3d/e/|ddgd|
e/d/c/B/Ad|e/d/c/B/ c/B/A/G/|G3:|
